ir/vegan-rounded.svg

<svg viewBox="0 0 24 24" stroke-width="1.5" fill="none" xmlns="http://www.w3.org/2000/svg" height="1em" width="1em">
  <path d="M14.5 11.5C12.75 13.3824 11 18 11 18C11 18 8.5 11.5 6 10" stroke="currentColor" stroke-linecap="round" stroke-linejoin="round"/>
  <path d="M18.0155 7.73006L18.3121 10.81C18.5045 12.8081 17.0064 14.5871 15.0083 14.7795C13.0478 14.9683 11.2718 13.5352 11.083 11.5747C10.8942 9.61421 12.3305 7.87187 14.291 7.68309L17.5749 7.36689C17.7969 7.34552 17.9941 7.50812 18.0155 7.73006Z" stroke="currentColor" stroke-linecap="round" stroke-linejoin="round"/>
  <path d="M12 22C17.5228 22 22 17.5228 22 12C22 6.47715 17.5228 2 12 2C6.47715 2 2 6.47715 2 12C2 17.5228 6.47715 22 12 22Z" stroke="currentColor" stroke-linecap="round" stroke-linejoin="round"/>
</svg>

<svg viewBox="0 0 24 24" stroke-width="1.5" fill="none" xmlns="http://www.w3.org/2000/svg" height="1em" width="1em">
  <path d="M14.5 11.5C12.75 13.382 11 18 11 18s-2.5-6.5-5-8" stroke="currentColor" stroke-linecap="round" stroke-linejoin="round"/>
  <path d="m18.015 7.73.297 3.08c.192 1.998-1.306 3.777-3.304 3.97-1.96.188-3.736-1.245-3.925-3.205a3.566 3.566 0 0 1 3.208-3.892l3.284-.316a.404.404 0 0 1 .44.363Z" stroke="currentColor" stroke-linecap="round" stroke-linejoin="round"/>
  <path d="M12 22c5.523 0 10-4.477 10-10S17.523 2 12 2 2 6.477 2 12s4.477 10 10 10Z" stroke="currentColor" stroke-linecap="round" stroke-linejoin="round"/>
</svg>
